brandFactory_export/3.Masa/Mano derecha_3Masa.svg

<?xml version="1.0" encoding="UTF-8"?>
<svg width="24px" height="24px" viewBox="0 0 24 24" version="1.1" xmlns="http://www.w3.org/2000/svg" xmlns:xlink="http://www.w3.org/1999/xlink">
    <title>3.Masa/Mano derecha_3Masa</title>
    <g id="Symbols" stroke="none" stroke-width="1" fill="none" fill-rule="evenodd">
        <g id="3.Masa/Mano-derecha_3Masa" fill="#5CB615" fill-rule="nonzero">
            <path d="M14.7058824,19.2605042 C14.7058824,18.9210084 14.6588235,18.6117647 14.5647059,18.3327731 C15.5932773,18.0470588 16.205042,17.2033613 16.205042,15.9932773 C16.205042,15.6537815 16.1546218,15.3411765 16.0638655,15.0621849 C17.0823529,14.7731092 17.687395,13.9327731 17.687395,12.7294118 C17.687395,12.4336134 17.6504202,12.1579832 17.5798319,11.9092437 L21.0621849,11.9092437 C22.6621849,11.9092437 23.6571429,10.9277311 23.6571429,9.34789916 C23.6571429,7.82857143 22.7327731,6.89747899 21.1159664,6.79327731 L12.2016807,6.79327731 C12.8941176,6.38655462 13.3781513,6.02016807 13.7277311,5.58319328 C14.0739496,5.15294118 14.2453782,4.63865546 14.2453782,4.13445378 C14.2453782,3.65042017 14.087395,3.17310924 13.7680672,2.77647059 C13.1428571,1.99663866 12.0773109,1.80504202 11.0521008,2.28571429 C9.31428571,3.10252101 6.5210084,4.47731092 4.27563025,5.58319328 C2.87731092,6.27226891 1.66722689,6.86722689 1.30420168,7.03529412 C0.921008403,7.21008403 0.0302521008,7.62352941 0.0302521008,8.56134454 L0.0302521008,17.9058824 C0.0302521008,19.0857143 0.4,20.0907563 1.06890756,20.7394958 C1.73445378,21.3848739 2.66554622,21.7109244 3.83193277,21.7109244 L12.2285714,21.7109244 C13.7579832,21.7042017 14.7058824,20.7697479 14.7058824,19.2605042 Z" id="Path"></path>
        </g>
    </g>
</svg>

<svg width="24" height="24" viewBox="0 0 24 24" xmlns="http://www.w3.org/2000/svg"><path d="M14.706 19.26c0-.339-.047-.648-.141-.927 1.028-.286 1.64-1.13 1.64-2.34 0-.34-.05-.652-.141-.93 1.018-.29 1.623-1.13 1.623-2.334 0-.295-.037-.571-.107-.82h3.482c1.6 0 2.595-.981 2.595-2.561 0-1.52-.924-2.45-2.541-2.555h-8.914c.692-.406 1.176-.773 1.526-1.21.346-.43.517-.944.517-1.449 0-.484-.158-.96-.477-1.358-.625-.78-1.69-.971-2.716-.49-1.738.817-4.531 2.191-6.776 3.297-1.399.69-2.609 1.284-2.972 1.452C.921 7.21.03 7.624.03 8.561v9.345c0 1.18.37 2.185 1.039 2.833.665.646 1.597.972 2.763.972h8.397c1.529-.007 2.477-.941 2.477-2.45z" fill="#5CB615" fill-rule="nonzero"/></svg>
